X:1
T:9 Lieder und Gesänge, Op.32
T:Nicht mehr zu dir zu gehen
T:2. Nicht mehr zu dir zu gehen
T:Johannes Brahms
T:9 Lieder und Gesänge, Op.32
T:Georg Friedrich Daumer
T:Creative Commons copyright waiver (CC0 1.0 Universal) 
T:Creative Commons copyright waiver (CC0 1.0 Universal) 
T:Creative Commons copyright waiver (CC0 1.0 Universal) 
C:Johannes Brahms
Z:Georg Friedrich Daumer (from a Moldavian folk song)
Z:Creative Commons copyright waiver (CC0 1.0 Universal)
Z:
L:1/8
Q:1/4=71
M:3/2
K:F
V:1 treble nm="Singstimme\nVoice"
V:1
"^Langsam\n" z2 D2 E2 F2 G2 B2 | D2 ^C2 z2 C2 D2 C2 | z2 D2 z2 D2 F2 E2 | z2 F2 G2 A2 B2 d2 | %4
w: Nicht mehr zu dir zu|ge- hen, be- schloss ich|und be- schwor ich,|und ge- he je- den|
 G2 ^F2 z2 F2 G2 A2 | (G2 ^F2) z2 F2 A2 G2 | (G2 =F2) z2 F2 G2 F2 | (F2 E2) z4 z2 F2 | %8
w: A- bend, denn je- de|Kraft, * denn je- de|Kraft, * und je- den|Halt * ver-|
 E2 D2 z4 z4 | z12 | z2 c2 B2 A2 G2 F2 | F2 E2 z2 F2 A2 C2 | (F2 E2) G2 F2 A2 D2 | F6 E2 z2 (D2 | %14
w: lor ich.||Ich möch- te nicht mehr|le- ben, möcht Au- gen-|blicks, * Au- gen- blicks ver-|der- ben, und|
 d3) d (_e2 d2) (c2 B2) | A4 A2 c2 =B2 d2 | c2 A2 A6 G2 | z4 G6 F2 | F8 E2 z2 | z12 | z12 | z12 | %22
w: möch- te doch _ auch _|le- ben für dich, mit|dir, und nim- mer,|nim- mer|ster- ben.||||
 z2 D2 E2 F2 G2 B2 | D2 ^C2 z2 C2 E3 D | D2 z2 z2 D2 F2 E2 | z2 F2 G2 A2 B2 d2 | %26
w: Ach re- de, sprich ein|Wort nur, ein ein- zi-|ges, ein kla- res;|gib Le- ben o- der|
 G2 ^F2 z2 F2 G2 A2 | (G2 ^F2) z2 F2 A2 G2 | (G2 =F2) z2 F2 G2 F2 | (F2 E2) z4 z2 F2 | %30
w: Tod mir, nur dein Ge-|fühl, _ nur dein Ge-|fühl _ ent- hül- le|mir, * dein|
 E2 D2 z4 z4 | z12 | z12 | z12 | z12 | z12 |] %36
w: wah- res!||||||

